X:1
T:Mallary, 77.77 D
T:Raymond DeWitt Mallary, 1901
T:Mallary, 77.77 D
T:Public Domain
C:Raymond DeWitt Mallary, 1901
Z:Public Domain
%%score ( 1 2 ) ( 3 4 )
L:1/8
M:4/4
K:A
V:1 treble 
V:2 treble 
V:3 bass 
V:4 bass 
V:1
 [CE]2 [DE]2 [CE]2 [Ec]2 | dAAB [Ec]4 | [Ee]2 [EB]2 [Ec]2 [FA]2 | [EG]2 [^DF]2 E4 | %4
 [CE]2 [DE]2 [CE]2 [Ec]2 | dAAB [Ec]4 | [EB]2 [Ee]2 [EB]2 [EG]2 | [EA][^DG] [DF]2 E4 | %8
 [Ad]2 [Gc]2 [FB]2 [EA]2 | [DG]2 [DF]2 E4 | [Fd]2 [Ec]2 [FB]2 [FA]2 | [DG]2 [DF]2 [DE]4 | %12
 [CE]2 [DE]2 [CE]2 [Ec]2 | dAAB [Cc]4 | [DF]2 [DB]2 [EG]2 [^Ec]2 | [FA]2 ED [CA]4 |] %16
V:2
 x8 | D2 D2 x4 | x8 | x4 E4 | x8 | D2 D2 x4 | x8 | x4 E4 | x8 | x4 E4 | x8 | x8 | x8 | D2 D2 x4 | %14
 x8 | x2 B2 x4 |] %16
V:3
 A,2 [E,G,]2 [A,,A,]2 [A,,E,]2 | [A,,F,]2 F,E, [A,,E,]4 | [G,,E,]2 [E,G,]2 A,2 [F,C]2 | %3
 [B,,B,]2 [B,,A,]2 [E,G,]4 | A,2 [E,G,]2 [A,,A,]2 [A,,E,]2 | [A,,F,]2 F,=F, [A,,E,]4 | %6
 [B,,G,]2 [B,,G,]2 [B,,G,]2 [B,,B,]2 | CB, [B,,A,]2 [E,G,]4 | [E,F]2 [E,E]2 [E,D]2 [E,C]2 | %9
 [E,B,]2 [E,A,]2 [E,G,]4 | [B,,B,]2 [C,A,]2 [D,A,]2 [^D,B,]2 | [E,B,]2 [F,B,]2 [G,B,]4 | %12
 A,2 [E,G,]2 [A,,A,]2 [A,,E,]2 | [A,,F,]2 F,=F, [A,,E,]4 | [D,B,]2 [B,,B,]2 [E,B,]2 [C,C]2 | %15
 [F,C]2 [E,G,]2 [A,,A,]4 |] %16
V:4
 A,2 x6 | x2 A,,2 x4 | x4 A,2 x2 | x8 | A,2 x6 | x2 A,,2 x4 | x8 | B,,2 x6 | x8 | x8 | x8 | x8 | %12
 A,2 x6 | x2 A,,2 x4 | x8 | x8 |] %16

